X:1
T:What Are You Going to Do?
T:What Are You Going to Do?
T:Phillip Phillips
T:Frances Jane (Fanny) Crosby, 1867
T:Public Domain Courtesy of the Cyber Hymnal™
T:Public Domain Courtesy of the Cyber Hymnal™
C:Phillip Phillips
Z:Public Domain
Z:Courtesy of the Cyber Hymnal™
%%score ( 1 2 ) ( 3 4 )
L:1/8
Q:1/4=95
M:6/8
K:Ab
V:1 treble 
V:2 treble 
V:3 bass 
V:4 bass 
V:1
 ([CA]/[DB]/) | [Ec]>[Ec][Ec] ([Ec]<[Ec])[Ec] | [Fd]3 ([Fd]<[Fd])[Fd] | %3
w: 1.~Oh, *|what are you going * to|do, brother? * Say,|
w: 2.~Will~you *|hon- or His cause * and|king- dom, * Wher-|
w: 3.~Oh, *|what are you going * to|do, brother? * The|
w: 4.~Oh, *|what are you going * to|do, brother? * Your|
w: 5.~Oh, *|what are you going * to|do, brother? * The|
 [Ec]>[Ec][Ec] ([Ec][DB])[CA] | [EB]3- [EB]2 ([CA]/[DB]/) | [Ec]>[Ec][Ec] [Ec]2 [Ec] | %6
w: what are you going * to|do? * You~have *|thought of some use- ful|
w: ev- er your path * may|be? * And *|stand as a bright ex-|
w: morn- ing of youth * is|past; * The *|vig- or and strength of|
w: sun at its noon * is|high! * It *|shines in me- rid- ian|
w: twi- light ap- proach- * es|now; * Al- *|read- y your locks are|
 [Fd]3 [Fd]2 [Fd] | [Ec]>[DB][CA] [Ec]2 [DB] | [CA]3- [CA]2 [CA]/[CA]/ | %9
w: la- bor, But|what is the end in|view? * You are|
w: am- ple, That|o- thers your light may|see? * Are you|
w: man- hood, My|bro- ther, are yours at|last. * You are|
w: splen- dor, And|rides through a cloud- less|sky. * You are|
w: sil- vered, And|win- ter is on your|brow. * Your tal-|
 [EG]>[EG][EG] ([EG][EA])[EB] | [EB] [EA]4 [EB] | [Ec]>[Ec][Ec] (cd)[Ae] | %12
w: fresh from the home~of * your|boy- hood, And|just in the bloom * of|
w: will- ing to live * for|Je- sus? And|rea- dy the cross * to|
w: ris- ing in world- * ly|pros- pects, And|pros- pered in earth- * ly|
w: hold- ing a high * po-|si- tion Of|hon- or, of trust, * and|
w: ents, your time, your * rich-|es, To Je-|sus, your Mas- ter, * give;|
 [GB]3- [GB]2 ([GB]/[GB]/) | [Ac]>[Ac][Ac] (cd)[Ae] | [Af] [Ae]4 [Ac] | [Ae]>[Ad][Ac] [Ed]2 [DB] | %16
w: youth! * Have~you *|tast- ed the spark- * ling|wa- ter, That|flows from the fount of|
w: bear? * Are~you *|will- ing to meet * re-|proach- es? The|frowns of the world to|
w: things: * A *|du- ty to those * less|fa- vored The|smile of your for- tune|
w: fame; * Are~you *|will- ing to give * the|glor- y And|praise to your Sav- ior’s|
w: Then * ask *|if the world a- * round|you Is bet-|ter be- cause you live.|
 [CA]3- [CA]2 | ([CA]/[EG]/) | [DF]>[DF][DF] ([FA]>[EG])[DF] | [DF] [CE]3- [CE]2 [CA] | %20
w: truth? *|Is~your *|heart in the Sav- * ior’s|keep- ing? * Re-|
w: share? *|Your *|lot may per- haps * be|hum- ble, * But|
w: brings. *|Go *|prove that your heart * is|grate- ful— * The|
w: name? *|The *|re- gions that sit * in|dark- ness * Are|
w: You *|are *|near- ing the brink * of|Jor- dan, * But|
 [EG]>[EG][EG] (GA)[EB] | [EA]3- [EA]2 ([CA]/[DB]/) | [Ec]>[Ec][Ec] [Ec]<[Ec][Ec] | %23
w: mem- ber, He died * for|you! * Then *|what are you go- ing to|
w: God has a work * for|you! * Then *|what are you go- ing to|
w: Lord has a work * for|you! * Then *|what are you go- ing to|
w: stretch- ing their hands * to|you; * Then, *|what are you go- ing to|
w: still there is work * for|you; * Then, *|what are you go- ing to|
 [Fd]3 [DF]<[DF][DF] | [CE][EA][GB] [Ac]<[Ac][GB] | A4 |] %26
w: do, bro- ther? Say,|what are you go- ing to|do?|
w: do, bro- ther? Say,|what are you go- ing to|do?|
w: do, bro- ther? Say,|what are you go- ing to|do?|
w: do, bro- ther? Say,|what are you go- ing to|do?|
w: do, bro- ther? Say,|what are you go- ing to|do?|
V:2
 x | x6 | x6 | x6 | x6 | x6 | x6 | x6 | x6 | x6 | x6 | x3 E2 x | x6 | x3 A2 x | x6 | x6 | x5 | x | %18
 x6 | x7 | x3 E2 x | x6 | x6 | x6 | x6 | A4 |] %26
V:3
 (A,/A,/) | A,>A,A, (A,<A,)A, | A,3 A,<A,A, | A,>A,A, (A,A,)A, | [E,G,]3- [E,G,]2 A,/A,/ | %5
 A,>A,A, A,2 A, | [D,A,]3 [D,A,]2 [D,A,] | [E,A,]>[E,G,][E,A,] [E,A,]2 [E,G,] | %8
 [A,,A,]3- [A,,A,]2 [A,,A,]/[A,,A,]/ | [E,B,]>[E,B,][E,B,] [E,B,][E,C][E,D] | [A,D] [A,C]4 [E,G,] | %11
 A,>A,A, (A,B,)[C,C] | [E,E]3- [E,E]2 ([E,E]/[E,E]/) | [A,E]>[A,E][A,E] (A,B,)[A,C] | %14
 [A,D] [A,C]4 A, | [E,C]>[E,B,][E,A,] [E,B,]2 [E,G,] | [A,,A,]3- [A,,A,]2 | [A,,A,]/[C,A,]/ | %18
 [D,A,]>[D,A,][D,A,] [D,A,]2 [D,A,] | [A,,A,] [A,,A,]3- [A,,A,]2 [A,,A,] | %20
 [E,B,]>[E,B,][E,B,] (B,C)[E,D] | [A,C]3- [A,C]2 A, | A,>A,A, A,<A,A, | %23
 [D,A,]3 [D,A,]<[D,A,][D,A,] | [E,A,][E,C][E,E] [E,E]<[E,E][E,D] | [A,,C]4 |] %26
V:4
 x | x6 | x6 | x6 | x6 | x6 | x6 | x6 | x6 | x6 | x6 | x3 A,2 x | x6 | x3 A,2 x | x6 | x6 | x5 | %17
 x | x6 | x7 | x3 E,2 x | x5 A, | A,>A,A, A,<A,A, | x6 | x6 | x4 |] %26

